assets/Onion/Flat/onion_flat.svg

<svg width="32" height="32" viewBox="0 0 32 32" fill="none" xmlns="http://www.w3.org/2000/svg">
<path d="M18.2299 28.0278H14.7799C14.4499 28.0278 14.1799 28.2978 14.1799 28.6278V28.7478C14.1799 29.4378 14.7399 29.9978 15.4299 29.9978H17.5899C18.2799 29.9978 18.8399 29.4378 18.8399 28.7478V28.6278C18.8299 28.2978 18.5599 28.0278 18.2299 28.0278Z" fill="#D3883E"/>
<path d="M19.21 4.28786V2.45786C19.21 2.03786 18.69 1.83786 18.41 2.15786L16.82 3.97786C16.64 4.18786 16.32 4.18786 16.13 3.97786L14.54 2.15786C14.26 1.83786 13.74 2.03786 13.74 2.45786V4.29786C13.74 5.43786 13.05 6.46786 12 6.91786C7.89 8.65786 5 12.7279 5 17.4779C5 23.5579 10.07 28.7879 16.15 28.9579C22.64 29.1379 27.95 23.9279 27.95 17.4879C27.95 12.7379 25.06 8.65786 20.95 6.91786C19.9 6.45786 19.21 5.43786 19.21 4.28786Z" fill="#F3AD61"/>
<path d="M10.3001 25.3179C11.9401 27.6179 14.1401 28.8779 16.4801 28.8779C18.8201 28.8779 21.0101 27.6079 22.6601 25.3179C24.2701 23.0679 25.1501 20.0879 25.1501 16.9279C25.1501 12.9279 23.7101 9.20785 21.3001 6.98785L20.6801 7.65785C22.9001 9.70785 24.2301 13.1779 24.2301 16.9279C24.2301 22.2381 21.5841 26.6816 18.0757 27.7324C19.4196 25.7191 20.1326 21.2185 20.1401 16.9179C20.1401 13.1579 19.6401 9.71787 18.7701 7.47787L18.0201 7.76787C18.8401 9.88787 19.3301 13.3079 19.3301 16.9179C19.3301 19.9579 18.9901 22.7979 18.3901 24.9379C17.8348 26.8986 17.1817 27.7679 16.692 27.9638C16.6216 27.9665 16.5509 27.9679 16.4801 27.9679C16.4092 27.9679 16.3386 27.9665 16.2682 27.9638C15.7784 27.7679 15.1253 26.8986 14.5701 24.9379C13.9601 22.7979 13.6301 19.9479 13.6301 16.9179C13.6301 13.2979 14.1201 9.87787 14.9401 7.76787L14.1901 7.47787C13.3201 9.70787 12.8201 13.1579 12.8201 16.9179C12.8201 21.2181 13.5366 25.7183 14.8827 27.7319C11.3751 26.6801 8.73006 22.2372 8.73006 16.9279C8.73006 13.1779 10.0601 9.70785 12.2801 7.65785L11.6601 6.98785C9.25006 9.20785 7.81006 12.9279 7.81006 16.9279C7.81006 20.0879 8.69006 23.0679 10.3001 25.3179Z" fill="#E19747"/>
</svg>

<svg xmlns="http://www.w3.org/2000/svg" width="32" height="32" fill="none"><path fill="#D3883E" d="M18.23 28.028h-3.45c-.33 0-.6.27-.6.6v.12c0 .69.56 1.25 1.25 1.25h2.16c.69 0 1.25-.56 1.25-1.25v-.12a.617.617 0 0 0-.61-.6Z"/><path fill="#F3AD61" d="M19.21 4.288v-1.83c0-.42-.52-.62-.8-.3l-1.59 1.82c-.18.21-.5.21-.69 0l-1.59-1.82a.456.456 0 0 0-.8.3v1.84c0 1.14-.69 2.17-1.74 2.62-4.11 1.74-7 5.81-7 10.56 0 6.08 5.07 11.31 11.15 11.48 6.49.18 11.8-5.03 11.8-11.47 0-4.75-2.89-8.83-7-10.57a2.874 2.874 0 0 1-1.74-2.63Z"/><path fill="#E19747" d="M10.3 25.318c1.64 2.3 3.84 3.56 6.18 3.56s4.53-1.27 6.18-3.56c1.61-2.25 2.49-5.23 2.49-8.39 0-4-1.44-7.72-3.85-9.94l-.62.67c2.22 2.05 3.55 5.52 3.55 9.27 0 5.31-2.646 9.754-6.154 10.804 1.344-2.013 2.057-6.514 2.064-10.814 0-3.76-.5-7.2-1.37-9.44l-.75.29c.82 2.12 1.31 5.54 1.31 9.15 0 3.04-.34 5.88-.94 8.02-.555 1.96-1.208 2.83-1.698 3.026a5.531 5.531 0 0 1-.424 0c-.49-.196-1.143-1.065-1.698-3.026-.61-2.14-.94-4.99-.94-8.02 0-3.62.49-7.04 1.31-9.15l-.75-.29c-.87 2.23-1.37 5.68-1.37 9.44 0 4.3.717 8.8 2.063 10.814-3.508-1.052-6.153-5.495-6.153-10.804 0-3.75 1.33-7.22 3.55-9.27l-.62-.67c-2.41 2.22-3.85 5.94-3.85 9.94 0 3.16.88 6.14 2.49 8.39Z"/></svg>
